Papirus/64x64/mimetypes/text-x-script.svg

<?xml version="1.0" encoding="UTF-8" standalone="no"?>
<svg
   id="_图层_1"
   data-name="图层_1"
   version="1.1"
   viewBox="0 0 128 128"
   width="64"
   height="64"
   sodipodi:docname="text-x-script.svg"
   xml:space="preserve"
   inkscape:version="1.4 (e7c3feb100, 2024-10-09)"
   xmlns:inkscape="http://www.inkscape.org/namespaces/inkscape"
   xmlns:sodipodi="http://sodipodi.sourceforge.net/DTD/sodipodi-0.dtd"
   xmlns="http://www.w3.org/2000/svg"
   xmlns:svg="http://www.w3.org/2000/svg"><sodipodi:namedview
     id="namedview3"
     pagecolor="#505050"
     bordercolor="#eeeeee"
     borderopacity="1"
     inkscape:showpageshadow="0"
     inkscape:pageopacity="0"
     inkscape:pagecheckerboard="0"
     inkscape:deskcolor="#505050"
     inkscape:zoom="10.6875"
     inkscape:cx="32"
     inkscape:cy="33.684211"
     inkscape:window-width="1920"
     inkscape:window-height="939"
     inkscape:window-x="0"
     inkscape:window-y="34"
     inkscape:window-maximized="1"
     inkscape:current-layer="_图层_1"
     showguides="true"><sodipodi:guide
       position="7.6134526,83.439664"
       orientation="1,0"
       id="guide7"
       inkscape:locked="false" /><sodipodi:guide
       position="120.24109,71.856006"
       orientation="1,0"
       id="guide8"
       inkscape:locked="false" /></sodipodi:namedview><!-- Generator: Adobe Illustrator 29.0.1, SVG Export Plug-In . SVG Version: 2.1.0 Build 192)  --><defs
     id="defs1"><style
       id="style1">
      .st0 {
        fill: #0071e9;
      }

      .st1 {
        fill: #fff;
      }

      .st2 {
        fill: #5aaaff;
        isolation: isolate;
        opacity: .5;
      }
    </style></defs><path
     class="st0"
     d="M18.2,0c-5.6,0-10.2,4.6-10.2,10.2v107.6c0,5.6,4.6,10.2,10.2,10.2h91.6c5.6,0,10.2-4.6,10.2-10.2V40.6L82.2,0H18.2Z"
     id="path1"
     style="fill:#4f4f4f;fill-opacity:1" /><path
     class="st2"
     d="m 82.761404,2.619883 v 29.2 c 0,3.2 2.145542,11.6 11.89801,11.6 h 24.966316 z"
     id="path2"
     style="fill:#3f3f3f;fill-opacity:1;stroke-width:0.987546" /><path
     class="st2"
     d="M 82.116964,0.02339171 V 29.223392 c 0,3.2 2.2,11.6 12.2,11.6 h 25.599996 z"
     id="path2-3"
     style="opacity:1;isolation:isolate;fill:#696969;fill-opacity:1" /><g
     id="g7"
     transform="matrix(2.5614035,0,0,2.2856263,-18.152047,-8.8676516)"><path
       style="opacity:0.2"
       d="M 24.476562,30 A 1.50015,1.4972215 0 0 0 23,31.519531 V 35 h -3.482422 a 1.4972215,1.50015 0 1 0 0,3 H 23 v 6 h -3.482422 a 1.4972215,1.50015 0 1 0 0,3 H 23 v 3.482422 a 1.50015,1.4972215 0 1 0 3,0 V 47 h 6 v 3.482422 a 1.50015,1.4972215 0 1 0 3,0 V 47 h 3.482422 A 1.4972215,1.50015 0 0 0 40,45.476562 1.4972215,1.50015 0 0 0 38.482422,44 H 35 v -6 h 3.482422 A 1.4972215,1.50015 0 0 0 40,36.476562 1.4972215,1.50015 0 0 0 38.482422,35 H 35 V 31.519531 A 1.50015,1.4972215 0 0 0 33.476562,30 1.50015,1.4972215 0 0 0 32,31.519531 V 35 H 26 V 31.519531 A 1.50015,1.4972215 0 0 0 24.476562,30 Z m 20,0 C 43.648902,30.0129 42.988128,30.693471 43,31.519531 v 13.962891 c -0.02869,2.024524 3.028688,2.024524 3,0 V 31.519531 C 46.01214,30.675147 45.322582,29.986804 44.476562,30 Z M 26,38 h 6 v 6 H 26 Z M 44.5,50 A 1.5,1.5 0 0 0 43,51.5 1.5,1.5 0 0 0 44.5,53 1.5,1.5 0 0 0 46,51.5 1.5,1.5 0 0 0 44.5,50 Z"
       id="path6" /><path
       style="fill:#ffffff"
       d="M 24.476562,29 A 1.50015,1.4972215 0 0 0 23,30.519531 V 34 h -3.482422 a 1.4972215,1.50015 0 1 0 0,3 H 23 v 6 h -3.482422 a 1.4972215,1.50015 0 1 0 0,3 H 23 v 3.482422 a 1.50015,1.4972215 0 1 0 3,0 V 46 h 6 v 3.482422 a 1.50015,1.4972215 0 1 0 3,0 V 46 h 3.482422 A 1.4972215,1.50015 0 0 0 40,44.476562 1.4972215,1.50015 0 0 0 38.482422,43 H 35 v -6 h 3.482422 A 1.4972215,1.50015 0 0 0 40,35.476562 1.4972215,1.50015 0 0 0 38.482422,34 H 35 V 30.519531 A 1.50015,1.4972215 0 0 0 33.476562,29 1.50015,1.4972215 0 0 0 32,30.519531 V 34 H 26 V 30.519531 A 1.50015,1.4972215 0 0 0 24.476562,29 Z m 20,0 C 43.648902,29.0129 42.988128,29.693471 43,30.519531 v 13.962891 c -0.02869,2.024524 3.028688,2.024524 3,0 V 30.519531 C 46.01214,29.675147 45.322582,28.986804 44.476562,29 Z M 26,37 h 6 v 6 H 26 Z M 44.5,49 A 1.5,1.5 0 0 0 43,50.5 1.5,1.5 0 0 0 44.5,52 1.5,1.5 0 0 0 46,50.5 1.5,1.5 0 0 0 44.5,49 Z"
       id="path7" /></g></svg>

<svg xmlns="http://www.w3.org/2000/svg" width="64" height="64" version="1.1">
 <path style="opacity:0.2" d="M 12.75,5 C 11.2265,5 10,6.2488 10,7.8 v 50.4 c 0,1.55008 1.2265,2.8 2.75,2.8 h 38.5 C 52.7724,61 54,59.75008 54,58.2 V 23 L 40,19 36,5 Z"/>
 <path style="fill:#4f4f4f" d="M 12.75,4 C 11.2265,4 10,5.2488 10,6.8 v 50.4 c 0,1.55008 1.2265,2.8 2.75,2.8 h 38.5 C 52.7724,60 54,58.75008 54,57.2 V 22 L 40,18 36,4 Z"/>
 <path style="opacity:0.2" d="M 54,23 36,5 V 20.1875 C 36,21.74675 37.2555,23 38.8125,23 Z"/>
 <path style="fill:#696969" d="M 54,22 36,4 V 19.1875 C 36,20.74675 37.2555,22 38.8125,22 Z"/>
 <path style="opacity:0.1;fill:#ffffff" d="M 12.75 4 C 11.2265 4 10 5.2495812 10 6.8007812 L 10 7.8007812 C 10 6.2495813 11.2265 5 12.75 5 L 36 5 L 36 4 L 12.75 4 z"/>
 <path style="opacity:0.2" d="M 24.476562,30 A 1.50015,1.4972215 0 0 0 23,31.519531 V 35 h -3.482422 a 1.4972215,1.50015 0 1 0 0,3 H 23 v 6 h -3.482422 a 1.4972215,1.50015 0 1 0 0,3 H 23 v 3.482422 a 1.50015,1.4972215 0 1 0 3,0 V 47 h 6 v 3.482422 a 1.50015,1.4972215 0 1 0 3,0 V 47 h 3.482422 A 1.4972215,1.50015 0 0 0 40,45.476562 1.4972215,1.50015 0 0 0 38.482422,44 H 35 v -6 h 3.482422 A 1.4972215,1.50015 0 0 0 40,36.476562 1.4972215,1.50015 0 0 0 38.482422,35 H 35 V 31.519531 A 1.50015,1.4972215 0 0 0 33.476562,30 1.50015,1.4972215 0 0 0 32,31.519531 V 35 H 26 V 31.519531 A 1.50015,1.4972215 0 0 0 24.476562,30 Z m 20,0 C 43.648902,30.0129 42.988128,30.693471 43,31.519531 v 13.962891 c -0.02869,2.024524 3.028688,2.024524 3,0 V 31.519531 C 46.01214,30.675147 45.322582,29.986804 44.476562,30 Z M 26,38 h 6 v 6 H 26 Z M 44.5,50 A 1.5,1.5 0 0 0 43,51.5 1.5,1.5 0 0 0 44.5,53 1.5,1.5 0 0 0 46,51.5 1.5,1.5 0 0 0 44.5,50 Z"/>
 <path style="fill:#ffffff" d="M 24.476562 29 A 1.50015 1.4972215 0 0 0 23 30.519531 L 23 34 L 19.517578 34 A 1.4972215 1.50015 0 1 0 19.517578 37 L 23 37 L 23 43 L 19.517578 43 A 1.4972215 1.50015 0 1 0 19.517578 46 L 23 46 L 23 49.482422 A 1.50015 1.4972215 0 1 0 26 49.482422 L 26 46 L 32 46 L 32 49.482422 A 1.50015 1.4972215 0 1 0 35 49.482422 L 35 46 L 38.482422 46 A 1.4972215 1.50015 0 0 0 40 44.476562 A 1.4972215 1.50015 0 0 0 38.482422 43 L 35 43 L 35 37 L 38.482422 37 A 1.4972215 1.50015 0 0 0 40 35.476562 A 1.4972215 1.50015 0 0 0 38.482422 34 L 35 34 L 35 30.519531 A 1.50015 1.4972215 0 0 0 33.476562 29 A 1.50015 1.4972215 0 0 0 32 30.519531 L 32 34 L 26 34 L 26 30.519531 A 1.50015 1.4972215 0 0 0 24.476562 29 z M 44.476562 29 C 43.648902 29.0129 42.988128 29.693471 43 30.519531 L 43 44.482422 C 42.97131 46.506946 46.028688 46.506946 46 44.482422 L 46 30.519531 C 46.01214 29.675147 45.322582 28.986804 44.476562 29 z M 26 37 L 32 37 L 32 43 L 26 43 L 26 37 z M 44.5 49 A 1.5 1.5 0 0 0 43 50.5 A 1.5 1.5 0 0 0 44.5 52 A 1.5 1.5 0 0 0 46 50.5 A 1.5 1.5 0 0 0 44.5 49 z"/>
</svg>
